Sources/FrostedUI/Resources/Icons.xcassets/hashtagFilled20.imageset/hashtag-filled-20.svg

<svg width="20" height="20" viewBox="0 0 20 20" fill="none" xmlns="http://www.w3.org/2000/svg" data-fui-icon="true">
  <path
    d="M14.4717 2.07458C14.6863 1.27483 15.5087 0.79983 16.3086 1.01404C17.1087 1.22845 17.5834 2.0518 17.3691 2.85193L16.75 5.16345H18.4004C19.2285 5.16379 19.9004 5.83524 19.9004 6.66345C19.9003 7.49163 19.2285 8.16311 18.4004 8.16345H15.9463L14.9326 11.9476H16.7852C17.6131 11.9481 18.285 12.6196 18.2852 13.4476C18.2852 14.2758 17.6132 14.9472 16.7852 14.9476H14.1289L13.3877 17.7123C13.1733 18.5125 12.35 18.9872 11.5498 18.7728C10.7499 18.5582 10.2749 17.7359 10.4893 16.9359L11.0225 14.9476H6.375L5.63379 17.7123C5.41938 18.5125 4.5961 18.9872 3.7959 18.7728C2.99618 18.5581 2.52101 17.7358 2.73535 16.9359L3.26855 14.9476H1.60059C0.772159 14.9476 0.100586 14.2761 0.100586 13.4476C0.100698 12.6193 0.772228 11.9476 1.60059 11.9476H4.07227L5.08594 8.16345H3.21582C2.38742 8.16345 1.71586 7.49184 1.71582 6.66345C1.71582 5.83502 2.38739 5.16345 3.21582 5.16345H5.88965L6.71777 2.07458C6.93237 1.27487 7.75482 0.799994 8.55469 1.01404C9.35485 1.22844 9.82958 2.05176 9.61523 2.85193L8.99609 5.16345H13.6436L14.4717 2.07458ZM7.17871 11.9476H11.8262L12.8398 8.16345H8.19238L7.17871 11.9476Z"
    fill="currentColor"
  />
</svg>

<svg xmlns="http://www.w3.org/2000/svg" width="20" height="20" fill="none" data-fui-icon="true" viewBox="0 0 20 20"><path fill="currentColor" d="M14.472 2.075a1.5 1.5 0 0 1 2.897.777l-.619 2.311h1.65a1.5 1.5 0 0 1 0 3h-2.454l-1.013 3.785h1.852a1.501 1.501 0 0 1 0 3H14.13l-.741 2.764a1.5 1.5 0 0 1-2.899-.776l.534-1.988H6.375l-.741 2.764a1.5 1.5 0 0 1-2.899-.776l.534-1.988H1.6a1.5 1.5 0 1 1 0-3h2.471l1.014-3.785h-1.87a1.5 1.5 0 0 1 0-3H5.89l.828-3.088a1.5 1.5 0 0 1 2.897.777l-.619 2.311h4.648zm-7.293 9.873h4.647l1.014-3.785H8.192z"/></svg>
